X:87
T:Rose of Allandale. JGi.087
O:Tealby,Lincolnshire
M:C|
L:1/8
Q:1/4=90
S:Joshua Gibbons MS,1823,Tealby,Lincs.
R:air
Z:VMP/R.Greig, 2009
K:D
d/e/|f3ed3c|edcBA3A|A3dd2ef|e4z2d>e|
f3ed3c|edcBA3A|Bd3c>de>f|d4z2zB|
e3cA2zA|f3dA2zf|ga/2g/2 fe fg/2f/2 ed|f4e2d>e|
f3ed3c|edcBA2zA|Bd2B c>de>f|e4z2 aa|
a3ff2d|(c2B2)z2 B2|g3fe3d|c<Az2z2A2|
B3c edcB|A/2e3f2d<c|Bd3c>de>c|d4|]

